svgs/1F9D2-1F3FD.svg

<svg xmlns="http://www.w3.org/2000/svg" xmlns:xlink="http://www.w3.org/1999/xlink" preserveAspectRatio="none" viewBox="0 0 72 72"><defs><path id="a" fill="#6D4C41" d="M102.5 93.4q16-15.05 16-36.3 0-21.2-16-36.25Q86.55 5.8 64 5.8T25.45 20.85Q9.5 35.85 9.5 57.1t15.95 36.3q16 15.05 38.55 15.05 22.55 0 38.5-15.05z"/><path id="b" fill="#99674F" d="M108.6 69.8h-3.8v21.4q5.05 0 8.3-2.55 3.8-2.95 3.8-8.45 0-5.6-4.15-8.55l-4.15-1.85z"/><path id="c" fill="#99674F" d="M23.15 69.8h-3.8l-4.15 1.85q-4.15 2.95-4.15 8.55 0 5.5 3.8 8.45 3.25 2.55 8.3 2.55V69.8z"/><path id="d" fill="#CC9970" d="M95.55 43q-5.35-6.7-14.5-10.3-8.1-3.2-17.05-3.2-8.95 0-17.1 3.2-9.15 3.6-14.5 10.3-11.25 14-11.2 37 .05 10.05 2.85 17.2 3.05 7.7 9.85 13.35 13.25 11.1 29.45 11.1 8.25 0 16.2-2.75 8.4-2.95 14.5-8.3 6.7-5.9 9.75-13.45 2.9-7.25 2.95-17.15.05-23-11.2-37z"/><path id="e" fill="#99674F" d="M57.75 89.65q-.65-.2-1 .3-.3.45 0 .95.7 1.2 2.5 2.3 2.25 1.4 4.75 1.4 2.45 0 4.75-1.4 1.75-1.1 2.45-2.3.3-.5 0-.95-.3-.5-.95-.3-3.2.95-6.25.95t-6.25-.95z"/><path id="f" fill="#513F35" d="M64 108.45q5.05 0 9.35-2.3 3.3-1.75 4.7-3.85.75-1.05.35-1.75-.35-.7-1.5-.7H51.05q-1.15 0-1.5.7-.35.7.35 1.75 1.35 2.1 4.7 3.85 4.3 2.3 9.4 2.3z"/><path id="g" fill="#444" d="M40.15 72.35q-1.7 2-1.7 4.85 0 2.9 1.7 4.9 1.65 2 4.05 2 2.35 0 4.05-2 1.65-2.05 1.65-4.9 0-2.85-1.65-4.85-1.7-2.05-4.05-2.05-2.4 0-4.05 2.05z"/><path id="h" fill="#444" d="M87.85 72.35q-1.7-2.05-4.05-2.05-2.4 0-4.05 2.05-1.7 2-1.7 4.85 0 2.85 1.7 4.9 1.65 2 4.05 2 2.35 0 4.05-2 1.65-2 1.65-4.9 0-2.85-1.65-4.85z"/><path id="i" fill="#6D4C41" d="M64 17.6L44 4.3H30.15l-20 13.3-2.6 9.45 2.75 8.45 1.95 3.75q7.25-1.65 14.95-6.3 6.65-4.05 9.55-7.65.1-.15.35-.15.2 0 .35.15 2.9 3.6 9.45 7.6 7.6 4.65 15.05 6.35l1.95-3.75 2.75-8.45L64 17.6z"/></defs><use transform="scale(.5625)" xlink:href="#a"/><use transform="scale(.56248)" xlink:href="#b"/><use transform="scale(.56248)" xlink:href="#c"/><use transform="scale(.56248)" xlink:href="#d"/><use transform="scale(.5625)" xlink:href="#e"/><use transform="scale(.5625)" xlink:href="#f"/><use transform="translate(0 1.8) scale(.5625)" xlink:href="#g"/><use transform="translate(0 1.8) scale(.5625)" xlink:href="#h"/><use transform="translate(-1.1 2.2)" xlink:href="#i"/></svg>

<svg xmlns="http://www.w3.org/2000/svg" version="1.1" xmlns:xlink="http://www.w3.org/1999/xlink" preserveAspectRatio="none" x="0px" y="0px" width="72px" height="72px" viewBox="0 0 72 72">
<defs>
<g id="Layer0_0_MEMBER_0_FILL">
<path fill="#6D4C41" stroke="none" d="
M 102.5 93.4
Q 118.5 78.35 118.5 57.1 118.5 35.9 102.5 20.85 86.55 5.8 64 5.8 41.45 5.8 25.45 20.85 9.5 35.85 9.5 57.1 9.5 78.35 25.45 93.4 41.45 108.45 64 108.45 86.55 108.45 102.5 93.4 Z"/>
</g>

<g id="Layer0_0_MEMBER_1_MEMBER_0_FILL">
<path fill="#99674F" stroke="none" d="
M 108.6 69.8
L 104.8 69.8 104.8 91.2
Q 109.85 91.2 113.1 88.65 116.9 85.7 116.9 80.2 116.9 74.6 112.75 71.65
L 108.6 69.8 Z"/>
</g>

<g id="Layer0_0_MEMBER_1_MEMBER_1_FILL">
<path fill="#99674F" stroke="none" d="
M 23.15 69.8
L 19.35 69.8 15.2 71.65
Q 11.05 74.6 11.05 80.2 11.05 85.7 14.85 88.65 18.1 91.2 23.15 91.2
L 23.15 69.8 Z"/>
</g>

<g id="Layer0_0_MEMBER_2_MEMBER_0_FILL">
<path fill="#CC9970" stroke="none" d="
M 95.55 43
Q 90.2 36.3 81.05 32.7 72.95 29.5 64 29.5 55.05 29.5 46.9 32.7 37.75 36.3 32.4 43 21.15 57 21.2 80 21.25 90.05 24.05 97.2 27.1 104.9 33.9 110.55 47.15 121.65 63.35 121.65 71.6 121.65 79.55 118.9 87.95 115.95 94.05 110.6 100.75 104.7 103.8 97.15 106.7 89.9 106.75 80 106.8 57 95.55 43 Z"/>
</g>

<g id="Layer0_0_MEMBER_3_FILL">
<path fill="#99674F" stroke="none" d="
M 57.75 89.65
Q 57.1 89.45 56.75 89.95 56.45 90.4 56.75 90.9 57.45 92.1 59.25 93.2 61.5 94.6 64 94.6 66.45 94.6 68.75 93.2 70.5 92.1 71.2 90.9 71.5 90.4 71.2 89.95 70.9 89.45 70.25 89.65 67.05 90.6 64 90.6 60.95 90.6 57.75 89.65 Z"/>
</g>

<g id="Layer0_0_MEMBER_4_FILL">
<path fill="#513F35" stroke="none" d="
M 64 108.45
Q 69.05 108.45 73.35 106.15 76.65 104.4 78.05 102.3 78.8 101.25 78.4 100.55 78.05 99.85 76.9 99.85
L 51.05 99.85
Q 49.9 99.85 49.55 100.55 49.2 101.25 49.9 102.3 51.25 104.4 54.6 106.15 58.9 108.45 64 108.45 Z"/>
</g>

<g id="Layer0_0_MEMBER_5_MEMBER_0_FILL">
<path fill="#444444" stroke="none" d="
M 40.15 72.35
Q 38.45 74.35 38.45 77.2 38.45 80.1 40.15 82.1 41.8 84.1 44.2 84.1 46.55 84.1 48.25 82.1 49.9 80.05 49.9 77.2 49.9 74.35 48.25 72.35 46.55 70.3 44.2 70.3 41.8 70.3 40.15 72.35 Z"/>
</g>

<g id="Layer0_0_MEMBER_5_MEMBER_1_FILL">
<path fill="#444444" stroke="none" d="
M 87.85 72.35
Q 86.15 70.3 83.8 70.3 81.4 70.3 79.75 72.35 78.05 74.35 78.05 77.2 78.05 80.05 79.75 82.1 81.4 84.1 83.8 84.1 86.15 84.1 87.85 82.1 89.5 80.1 89.5 77.2 89.5 74.35 87.85 72.35 Z"/>
</g>

<g id="Layer0_0_MEMBER_6_FILL">
<path fill="#6D4C41" stroke="none" d="
M 64 17.6
L 44 4.3 30.15 4.3 10.15 17.6 7.55 27.05 10.3 35.5 12.25 39.25
Q 19.5 37.6 27.2 32.95 33.85 28.9 36.75 25.3 36.85 25.15 37.1 25.15 37.3 25.15 37.45 25.3 40.35 28.9 46.9 32.9 54.5 37.55 61.95 39.25
L 63.9 35.5 66.65 27.05 64 17.6 Z"/>
</g>
</defs>

<g id="Layer_1">
<g transform="matrix( 0.5625, 0, 0, 0.5625, 0,0) ">
<use xlink:href="#Layer0_0_MEMBER_0_FILL"/>
</g>

<g transform="matrix( 0.5624847412109375, 0, 0, 0.5624847412109375, 0,0) ">
<use xlink:href="#Layer0_0_MEMBER_1_MEMBER_0_FILL"/>
</g>

<g transform="matrix( 0.5624847412109375, 0, 0, 0.5624847412109375, 0,0) ">
<use xlink:href="#Layer0_0_MEMBER_1_MEMBER_1_FILL"/>
</g>

<g transform="matrix( 0.5624847412109375, 0, 0, 0.5624847412109375, 0,0) ">
<use xlink:href="#Layer0_0_MEMBER_2_MEMBER_0_FILL"/>
</g>

<g transform="matrix( 0.5625, 0, 0, 0.5625, 0,0) ">
<use xlink:href="#Layer0_0_MEMBER_3_FILL"/>
</g>

<g transform="matrix( 0.5625, 0, 0, 0.5625, 0,0) ">
<use xlink:href="#Layer0_0_MEMBER_4_FILL"/>
</g>

<g transform="matrix( 0.5625, 0, 0, 0.5625, 0,1.8) ">
<use xlink:href="#Layer0_0_MEMBER_5_MEMBER_0_FILL"/>
</g>

<g transform="matrix( 0.5625, 0, 0, 0.5625, 0,1.8) ">
<use xlink:href="#Layer0_0_MEMBER_5_MEMBER_1_FILL"/>
</g>

<g transform="matrix( 1, 0, 0, 1, -1.1,2.2) ">
<use xlink:href="#Layer0_0_MEMBER_6_FILL"/>
</g>
</g>
</svg>
